!!!!SEGMENT: pl-wumfc--r282--002-004_paderewski-ignacy-jan--exercises-2-exercise-4.krn
!!!cenid: 18xx:3179
!!!COM: Paderewski, Ignacy Jan
!!!COM-rismID: pe30029943
!!!CDT: 1860/11/18-1941/06/29
!!!CNT: Polish
!!!GTL: [Exercises 2]
!!!OTL: [Exercise] 4
!!!OMV: 004
!!!PDT:
!!!AGN:
!!!SMS-siglum: PL-Wumfc
!!!SMS-shelfmark: R282
!!!SMS-shelfwork: 002-004 G
!!!SMS-variant:
!!!SMS-altvar:
!!!NIFC-rismSourceID: 1001158933
!!!NIFC-islandoraID: pl-wumfc:419
!!!URL-pdf-islandora: https://repozytorium.nifc.pl/islandora/object/pl-wumfc%3A419/datastream/PDF/view
!!!URL-scan: https://polish.musicsources.pl/pl/lokalizacje/galeria/rekopisy/4702 @EN{Scan on Polish Music Sources Website} @PL{Skany w portalu Dziedzictwo Muzyki Polskiej w otwartym dostępie}
!!!ONB-nifc: UWAGA: druga grupa ćwiczeń od skanu 0008
!!!AIN: 2 piano
!!!key: G
**kern	**kern
*part2	*part1
*group1	*group1
*staff2	*staff1
*I"[Pianoforte]	*I"[Pianoforte]
*I'	*I'
*Ipiano	*Ipiano
*ICklav	*ICklav
*clefF4	*clefG2
*k[f#]	*k[f#]
*G:	*G:
*M	*M
*^	*
!	!	!LO:TX:a:t=c.f
2G/	2G\	2g/
=1	=1	=1
2G/	2E\	2g/
2A/	2D\	2f#/
2c/	2E\	2e/
2d/	2F#\	2d/
=2	=2	=2
*	*	*^
2c/	2E\	2g/	1.ryy
2A/	2F#\	2a/	.
2G;/	2G;\	2b;/	.
2E\	2ryy	2b/	2g\
*v	*v	*	*
=3	=3	=3
2D\	2b/	2f#\
2G\	2b/	2e\
2A\	2a/	2c\
2B\	2g/	2d\
!!pagebreak:original
=4	=4	=4
2A\	2cc/	2c\
2G#X\	2b/	2e\
2A;\	2a;/	2c;\
2E\	2g/	2e\
=5	=5	=5
2F#\	2a/	2d\
2G\	2b/	2B\
2A\	2a/	2c\
2B\	2g/	2d\
=6	=6	=6
2c\	2e/	2c\
2B\	2f#/	2d\
2G;\	2g;/	2B\
2F#\	2dd\	2A\
=7	=7	=7
2G\	2b/	2B\
2E\	2g/	2e\
[2A\	2a/	2c\
2A\]	2cc/	2A\
=8	=8	=8
2G\	2b/	2B\
2F#\	2a/	2d\
2G\	2g;/	2B\
*	*v	*v
==	==
*-	*-
!!!system-decoration: [(g1)]
!!!ENC: Katarzyna Serwa
!!!END: 2021-11-16
!!!ENC: Filip Voros
!!!END: 2021-11-12
